X: 39088
T: Sweeney's Buttermilk
R: reel
M: 4/4
K: Bminor
|:"Bm"F~B3 F~B3|"D"dcBc "A"A~E3|"Bm"F~B3 ABce|"A"afec Baga|
"D"f2 ec fecf|"A"ecBc BAFE|"Bm"F~B3 ABce|1 "A"afec "Bm"B4:|2 "A"faec "Bm"B2 BA||
|:"Bm"FBdc B~F3|"A"EAcB A~E3|"BM"FBdc (3Bcd fb|"A"afec "Bm"dB"A"cA|
"Bm"Bcde fB{c}Bg|"A"afec ABce|"Bm"fe (3fga bafb|"A"afec "Bm"B2 BA:|

